X:047
T:Weasel in the Grass
M:6/8
K:G
B2 B A2 B | AGG G2 d | efg dBG | BAA A3 |
B2 B A2 B | AGG G2 d | efg dBG |1 cAF G2 z :|2 cAF G2 ||
g | fed cBA | BGG G2 g | fed cBA | eAA A2 g |
fed cBA | BGG G2 d | efg dBG | cAF G2 :||
z | E2 E EDE | G3 G2 G | A2 A AGA | B3 Bcd |
edc edc | d2 B G2 B | A2 B c2 B | A2 G FED |
E2 E EDE | G3 G2 G | A2 A AGA | B3 Bcd |
edc edc | d2 B Ggg | fed cBA | G3 G3 ||

